Numix/24x24/status/transmission-tray-icon.svg

<?xml version="1.0" encoding="UTF-8" standalone="no"?>
<svg
   xmlns:dc="http://purl.org/dc/elements/1.1/"
   xmlns:cc="http://creativecommons.org/ns#"
   xmlns:rdf="http://www.w3.org/1999/02/22-rdf-syntax-ns#"
   xmlns:svg="http://www.w3.org/2000/svg"
   xmlns="http://www.w3.org/2000/svg"
   xmlns:sodipodi="http://sodipodi.sourceforge.net/DTD/sodipodi-0.dtd"
   xmlns:inkscape="http://www.inkscape.org/namespaces/inkscape"
   width="24"
   height="24"
   viewBox="0 0 24 24"
   id="svg3041"
   version="1.1"
   inkscape:version="0.48.5 r10040"
   sodipodi:docname="transmission-tray-icon.svg">
  <metadata
     id="metadata3053">
    <rdf:RDF>
      <cc:Work
         rdf:about="">
        <dc:format>image/svg+xml</dc:format>
        <dc:type
           rdf:resource="http://purl.org/dc/dcmitype/StillImage" />
      </cc:Work>
    </rdf:RDF>
  </metadata>
  <defs
     id="defs3051" />
  <sodipodi:namedview
     pagecolor="#ffffff"
     bordercolor="#666666"
     borderopacity="1"
     objecttolerance="10"
     gridtolerance="10"
     guidetolerance="10"
     inkscape:pageopacity="0"
     inkscape:pageshadow="2"
     inkscape:window-width="640"
     inkscape:window-height="480"
     id="namedview3049"
     showgrid="false"
     inkscape:zoom="9.8333333"
     inkscape:cx="12"
     inkscape:cy="12"
     inkscape:window-x="0"
     inkscape:window-y="0"
     inkscape:window-maximized="0"
     inkscape:current-layer="svg3041" />
  <path
     style="fill:#ececec;fill-opacity:1"
     inkscape:connector-curvature="0"
     id="path3047"
     d="m 12,3.273438 -5.453125,4.847656 3.636719,0 0,7.757812 -3.636719,0 L 12,20.726562 l 5.453125,-4.847656 -3.636719,0 0,-7.757812 3.636719,0 z" />
</svg>

<svg xmlns="http://www.w3.org/2000/svg" width="24" height="24" viewBox="0 0 24 24">
 <g>
  <path d="M 12 4.363281 L 6.546875 9.210938 L 10.183594 9.210938 L 10.183594 16.96875 L 6.546875 16.96875 L 12 21.816406 L 17.453125 16.96875 L 13.816406 16.96875 L 13.816406 9.210938 L 17.453125 9.210938 Z " fill-opacity="0.302"/>
  <path d="M 12 3.273438 L 6.546875 8.121094 L 10.183594 8.121094 L 10.183594 15.878906 L 6.546875 15.878906 L 12 20.726562 L 17.453125 15.878906 L 13.816406 15.878906 L 13.816406 8.121094 L 17.453125 8.121094 Z " fill="#dcdcdc"/>
 </g>
</svg>
